symbolic/32x32/apps/overcooked2.svg

<svg xmlns="http://www.w3.org/2000/svg" width="32" height="32" version="1.1">
 <path style="opacity:0.2" d="M 16.5,2.9999997 A 13.5,14 0 0 0 3,17 13.5,14 0 0 0 16.5,31 13.5,14 0 0 0 30,17 13.5,14 0 0 0 16.5,2.9999997 Z m 0,10.4001953 A 2.8421054,3.6 0 0 1 19.342105,17 2.8421054,3.6 0 0 1 16.5,20.599805 2.8421054,3.6 0 0 1 13.657895,17 2.8421054,3.6 0 0 1 16.5,13.400195 Z"/>
 <path style="fill:#ae2d20" d="M 16.5,2 A 13.5,14 0 0 0 3,16 13.5,14 0 0 0 16.5,30 13.5,14 0 0 0 30,16 13.5,14 0 0 0 16.5,2 Z m 0,10.400195 A 2.8421054,3.6 0 0 1 19.342105,16 2.8421054,3.6 0 0 1 16.5,19.599805 2.8421054,3.6 0 0 1 13.657895,16 2.8421054,3.6 0 0 1 16.5,12.400195 Z"/>
 <path style="opacity:0.2" d="M 16.5,4.9999997 A 11.499999,12 0 0 0 5,17 11.499999,12 0 0 0 16.5,29 11.499999,12 0 0 0 28,17 11.499999,12 0 0 0 16.5,4.9999997 Z m 0,5.6470593 A 5.0312501,6.3529413 0 0 1 21.53125,17 5.0312501,6.3529413 0 0 1 16.5,23.352941 5.0312501,6.3529413 0 0 1 11.46875,17 5.0312501,6.3529413 0 0 1 16.5,10.647059 Z"/>
 <path style="fill:#ffffff" d="M 16.5,4 A 11.499999,12 0 0 0 5,16 11.499999,12 0 0 0 16.5,28 11.499999,12 0 0 0 28,16 11.499999,12 0 0 0 16.5,4 Z m 0,5.6470588 A 5.0312501,6.3529413 0 0 1 21.53125,16 5.0312501,6.3529413 0 0 1 16.5,22.352941 5.0312501,6.3529413 0 0 1 11.46875,16 5.0312501,6.3529413 0 0 1 16.5,9.6470588 Z"/>
 <path style="opacity:0.2" d="m 25.056633,30.589382 c -1.312694,-0.150759 -2.629627,-0.279327 -3.935698,-0.47247 -0.295487,-0.407641 0.04481,-0.992289 0.03419,-1.47267 0.320617,-1.584568 1.590741,-2.851889 3.018537,-3.724346 0.832469,-0.572367 1.819634,-1.07523 2.313665,-1.947342 0.135214,-0.589892 0.06544,-1.237125 -0.211505,-1.785567 -0.498041,-0.541084 -1.393551,-0.510358 -2.092192,-0.408745 -0.577731,0.02031 -1.151902,0.511073 -1.639344,0.500195 -0.03498,-0.7401 0.01486,-1.490782 0.147962,-2.220746 0.290777,-0.786111 1.304371,-0.972419 2.106786,-1.032267 1.579163,-0.126739 3.3629,0.202836 4.395169,1.385652 0.759592,0.841313 0.872121,1.979186 0.777158,3.024743 -0.03516,1.415741 -1.207487,2.526526 -2.419687,3.27656 -0.80777,0.50776 -1.733613,0.902683 -2.382883,1.588032 -0.05507,0.517725 0.9776,0.333955 1.377638,0.475578 0.973112,0.123866 1.964416,0.181921 2.916917,0.404577 0.07435,0.822866 -0.04599,1.656401 -0.154945,2.474574 0.01313,0.602841 -0.852489,0.224569 -1.253402,0.259326 -1.000167,-0.102824 -1.998923,-0.216722 -2.998369,-0.325084 z"/>
 <path style="fill:#fd9a00" d="m 25.056633,29.589382 c -1.312694,-0.150759 -2.629627,-0.279327 -3.935698,-0.47247 -0.295487,-0.407641 0.04481,-0.992289 0.03419,-1.47267 0.320617,-1.584568 1.590741,-2.851889 3.018537,-3.724346 0.832469,-0.572367 1.819634,-1.07523 2.313665,-1.947342 0.135214,-0.589892 0.06544,-1.237125 -0.211505,-1.785567 -0.498041,-0.541084 -1.393551,-0.510358 -2.092192,-0.408745 -0.577731,0.02031 -1.151902,0.511073 -1.639344,0.500195 -0.03498,-0.7401 0.01486,-1.490782 0.147962,-2.220746 0.290777,-0.786111 1.304371,-0.972419 2.106786,-1.032267 1.579163,-0.126739 3.3629,0.202836 4.395169,1.385652 0.759592,0.841313 0.872121,1.979186 0.777158,3.024743 -0.03516,1.415741 -1.207487,2.526526 -2.419687,3.27656 -0.80777,0.50776 -1.733613,0.902683 -2.382883,1.588032 -0.05507,0.517725 0.9776,0.333955 1.377638,0.475578 0.973112,0.123866 1.964416,0.181921 2.916917,0.404577 0.07435,0.822866 -0.04599,1.656401 -0.154945,2.474574 0.01313,0.602841 -0.852489,0.224569 -1.253402,0.259326 -1.000167,-0.102824 -1.998923,-0.216722 -2.998369,-0.325084 z"/>
 <path style="opacity:0.1;fill:#ffffff" d="M 16.5 2 A 13.5 14 0 0 0 3 16 A 13.5 14 0 0 0 3.0195312 16.40625 A 13.5 14 0 0 1 16.5 3 A 13.5 14 0 0 1 29.980469 16.59375 A 13.5 14 0 0 0 30 16 A 13.5 14 0 0 0 16.5 2 z M 19.310547 16.498047 A 2.8421054 3.6 0 0 1 16.5 19.599609 A 2.8421054 3.6 0 0 1 13.689453 16.501953 A 2.8421054 3.6 0 0 0 13.658203 17 A 2.8421054 3.6 0 0 0 16.5 20.599609 A 2.8421054 3.6 0 0 0 19.341797 17 A 2.8421054 3.6 0 0 0 19.310547 16.498047 z"/>
</svg>

<svg xmlns="http://www.w3.org/2000/svg" width="32" height="32"><path style="opacity:.2" d="M16.5 3A13.5 14 0 0 0 3 17a13.5 14 0 0 0 13.5 14A13.5 14 0 0 0 30 17 13.5 14 0 0 0 16.5 3zm0 10.4a2.842 3.6 0 0 1 2.842 3.6 2.842 3.6 0 0 1-2.842 3.6 2.842 3.6 0 0 1-2.842-3.6 2.842 3.6 0 0 1 2.842-3.6z"/><path style="fill:#ae2d20" d="M16.5 2A13.5 14 0 0 0 3 16a13.5 14 0 0 0 13.5 14A13.5 14 0 0 0 30 16 13.5 14 0 0 0 16.5 2zm0 10.4a2.842 3.6 0 0 1 2.842 3.6 2.842 3.6 0 0 1-2.842 3.6 2.842 3.6 0 0 1-2.842-3.6 2.842 3.6 0 0 1 2.842-3.6z"/><path style="opacity:.2" d="M16.5 5A11.5 12 0 0 0 5 17a11.5 12 0 0 0 11.5 12A11.5 12 0 0 0 28 17 11.5 12 0 0 0 16.5 5zm0 5.647A5.031 6.353 0 0 1 21.531 17a5.031 6.353 0 0 1-5.031 6.353A5.031 6.353 0 0 1 11.469 17a5.031 6.353 0 0 1 5.031-6.353z"/><path style="fill:#fff" d="M16.5 4A11.5 12 0 0 0 5 16a11.5 12 0 0 0 11.5 12A11.5 12 0 0 0 28 16 11.5 12 0 0 0 16.5 4zm0 5.647A5.031 6.353 0 0 1 21.531 16a5.031 6.353 0 0 1-5.031 6.353A5.031 6.353 0 0 1 11.469 16 5.031 6.353 0 0 1 16.5 9.647z"/><path style="opacity:.2" d="M25.057 30.59c-1.313-.151-2.63-.28-3.936-.473-.296-.408.045-.992.034-1.473.32-1.584 1.59-2.852 3.019-3.724.832-.572 1.82-1.075 2.313-1.947a2.68 2.68 0 0 0-.211-1.786c-.498-.541-1.394-.51-2.092-.409-.578.02-1.152.511-1.64.5-.035-.74.015-1.49.148-2.22.291-.786 1.305-.973 2.107-1.033 1.58-.126 3.363.203 4.395 1.386.76.841.872 1.98.777 3.025-.035 1.416-1.207 2.526-2.42 3.276-.807.508-1.733.903-2.382 1.588-.055.518.977.334 1.377.476.974.124 1.965.182 2.917.405.075.822-.046 1.656-.155 2.474.014.603-.852.225-1.253.26-1-.103-1.999-.217-2.998-.326z"/><path style="fill:#fd9a00" d="M25.057 29.59c-1.313-.151-2.63-.28-3.936-.473-.296-.408.045-.992.034-1.473.32-1.584 1.59-2.852 3.019-3.724.832-.572 1.82-1.075 2.313-1.947a2.68 2.68 0 0 0-.211-1.786c-.498-.541-1.394-.51-2.092-.409-.578.02-1.152.511-1.64.5-.035-.74.015-1.49.148-2.22.291-.786 1.305-.973 2.107-1.033 1.58-.126 3.363.203 4.395 1.386.76.841.872 1.98.777 3.025-.035 1.416-1.207 2.526-2.42 3.276-.807.508-1.733.903-2.382 1.588-.055.518.977.334 1.377.476.974.124 1.965.182 2.917.405.075.822-.046 1.656-.155 2.474.014.603-.852.225-1.253.26-1-.103-1.999-.217-2.998-.326z"/><path style="opacity:.1;fill:#fff" d="M16.5 2A13.5 14 0 0 0 3 16a13.5 14 0 0 0 .02.406A13.5 14 0 0 1 16.5 3a13.5 14 0 0 1 13.48 13.594A13.5 14 0 0 0 30 16 13.5 14 0 0 0 16.5 2zm2.81 14.498A2.842 3.6 0 0 1 16.5 19.6a2.842 3.6 0 0 1-2.81-3.098 2.842 3.6 0 0 0-.032.498 2.842 3.6 0 0 0 2.842 3.6 2.842 3.6 0 0 0 2.842-3.6 2.842 3.6 0 0 0-.031-.502z"/></svg>
